assets/images/icons/exclusion.svg

<svg width="12" height="12" viewBox="0 0 12 12" fill="none" xmlns="http://www.w3.org/2000/svg">
<g id="fi_9675141">
<path id="Vector" d="M3.66013 11.6391C3.51536 11.8157 3.30943 11.9371 3.07939 11.9814C2.84936 12.0258 2.61033 11.9901 2.40534 11.8809C2.23792 11.7982 2.10924 11.6582 2.04495 11.4887C1.98066 11.3193 1.98548 11.133 2.05844 10.9668C2.80534 9.55133 3.84397 7.89591 4.57629 6.77531C4.94631 6.20915 5.07707 6.10656 4.6656 5.58881C4.32332 5.15809 3.86905 4.62955 3.57764 4.29218C3.07151 3.70642 2.34072 2.89896 2.1474 2.46582C2.06706 2.25049 2.06086 2.01623 2.12971 1.79728C2.19856 1.57834 2.33884 1.3862 2.53004 1.24896C2.92406 0.972212 3.28924 1.06568 3.73742 1.4907C4.02816 1.76641 5.72713 3.83334 5.96114 4.12663C6.24364 4.48076 6.31466 4.47154 6.6136 4.07572C6.91722 3.67364 8.12668 2.19308 8.43786 1.79634C8.9971 1.08323 9.63483 0.791531 10.0357 1.15963C10.1308 1.23041 10.2103 1.31845 10.2697 1.41869C10.329 1.51893 10.3671 1.62941 10.3817 1.74377C10.3963 1.85812 10.3872 1.97412 10.3548 2.08508C10.3224 2.19604 10.2674 2.29979 10.1929 2.39037C9.63832 3.22362 8.95725 3.9787 8.34166 4.77026C8.16951 4.96737 8.01158 5.17546 7.86897 5.39308C7.56362 5.91525 7.53082 5.9377 7.84956 6.46097C8.07113 6.82472 8.47405 7.32486 8.7054 7.63959C9.34364 8.5082 10.0357 9.46175 10.7431 10.2775C11.3482 10.9753 10.7394 11.5485 10.3971 11.7176C10.1919 11.8323 9.9479 11.8656 9.71728 11.8105C9.48667 11.7554 9.28776 11.6162 9.1631 11.4226C8.7491 10.8973 8.40957 10.3127 8.02424 9.76755C7.70954 9.32225 7.32385 8.65246 6.98807 8.21825C6.47736 7.55783 6.38033 7.31551 6.16132 7.68769C5.4019 8.97828 4.07522 11.1026 3.66013 11.6391Z" fill="#F5213A"/>
</g>
</svg>

<svg xmlns="http://www.w3.org/2000/svg" width="12" height="12" fill="none"><path fill="#F5213A" d="M3.66 11.64a1 1 0 0 1-.58.341c-.23.045-.47.01-.675-.1a.73.73 0 0 1-.36-.392.7.7 0 0 1 .013-.522c.747-1.416 1.786-3.071 2.518-4.192.37-.566.501-.668.09-1.186a45 45 0 0 0-1.088-1.297C3.072 3.706 2.34 2.9 2.148 2.466a1.03 1.03 0 0 1-.018-.669c.069-.219.209-.41.4-.548.394-.277.76-.183 1.207.242.291.275 1.99 2.342 2.224 2.636.283.354.354.345.653-.051.303-.402 1.513-1.883 1.824-2.28.56-.713 1.197-1.004 1.598-.636q.143.106.234.259a.85.85 0 0 1 .085.666.9.9 0 0 1-.162.305c-.555.834-1.236 1.589-1.851 2.38q-.258.296-.473.623c-.305.522-.338.545-.02 1.068.222.364.625.864.856 1.179.639.868 1.33 1.822 2.038 2.638.605.697-.004 1.27-.346 1.44a.95.95 0 0 1-.68.092.9.9 0 0 1-.554-.387c-.414-.526-.753-1.11-1.139-1.655-.314-.446-.7-1.116-1.036-1.55-.51-.66-.608-.902-.827-.53-.76 1.29-2.086 3.415-2.5 3.951"/></svg>
